assets/icons8-league-of-legends.svg

<?xml version="1.0"?><svg xmlns="http://www.w3.org/2000/svg"  viewBox="0 0 30 30" width="30px" height="30px">    <path d="M 7 4 L 9 7.25 L 9 22.75 L 6.875 26 L 21.957031 26 L 25 22 L 14 22 L 14 4 L 7 4 z M 16 4.0507812 L 16 6.0585938 C 20.493 6.5575937 24 10.375 24 15 C 24 16.849 23.438516 18.569 22.478516 20 L 24.785156 20 C 25.556156 18.498 26 16.801 26 15 C 26 9.272 21.598 4.5577812 16 4.0507812 z M 6.8730469 7.6113281 C 5.0940469 9.5663281 4 12.155 4 15 C 4 17.837 5.0884219 20.418094 6.8574219 22.371094 L 7 22.154297 L 7 19.105469 C 6.365 17.872469 6 16.479 6 15 C 6 13.521 6.365 12.127531 7 10.894531 L 7 7.8164062 L 6.8730469 7.6113281 z"/></svg>

<svg xmlns="http://www.w3.org/2000/svg" x="0px" y="0px" width="48" height="48" viewBox="0,0,256,256">
<g fill="#fffcfc" fill-rule="nonzero" stroke="none" stroke-width="1" stroke-linecap="butt" stroke-linejoin="miter" stroke-miterlimit="10" stroke-dasharray="" stroke-dashoffset="0" font-family="none" font-weight="none" font-size="none" text-anchor="none" style="mix-blend-mode: normal"><g transform="scale(8.53333,8.53333)"><path d="M7,4l2,3.25v15.5l-2.125,3.25h15.08203l3.04297,-4h-11v-18zM16,4.05078v2.00781c4.493,0.499 8,4.31641 8,8.94141c0,1.849 -0.56148,3.569 -1.52148,5h2.30664c0.771,-1.502 1.21484,-3.199 1.21484,-5c0,-5.728 -4.402,-10.44222 -10,-10.94922zM6.87305,7.61133c-1.779,1.955 -2.87305,4.54367 -2.87305,7.38867c0,2.837 1.08842,5.41809 2.85742,7.37109l0.14258,-0.2168v-3.04883c-0.635,-1.233 -1,-2.62647 -1,-4.10547c0,-1.479 0.365,-2.87247 1,-4.10547v-3.07812z"></path></g></g>
</svg>
